X: 61
T: Polska från Södermanland
T: "1814"
R: slängpolska
M: 3/4
K: G
L: 1/16
"G"d2c2 B4 G4 | "D7"c2B2 A4 D4 | "G"G2>F2 G2A2 B2c2 | "G"d2de d2c2 B2c2 |
"G"d2c2 B4 G4 | "D7"c2B2 A4 D4 | "G"G2>F2 G2A2 B2c2 | "D"A2F2 "G"G8 :|
|:"G"G,2D2 D2D2 D2D2 | "C"(G,2E2) E2E2 E2F2 | "G"G2>A2 B2A2 G2F2 | "G"G4 (DE)DC B,2A,2 |
"G"G,2D2 D2D2 D2D2 | "C"(G,2E2) E2E2 E2F2 | "G"G2>A2 B2A2 G2F2 | "G"G4 G,8 :|

